src/assets/duotone/Snapchat.svg

<svg width="24" height="24" viewBox="0 0 24 24"  xmlns="http://www.w3.org/2000/svg">
<path opacity="0.4" d="M12 22C17.5228 22 22 17.5228 22 12C22 6.47715 17.5228 2 12 2C6.47715 2 2 6.47715 2 12C2 17.5228 6.47715 22 12 22Z" />
<path fill-rule="evenodd" clip-rule="evenodd" d="M17.3098 15.3105C17.0198 15.4705 16.7798 15.5405 16.5798 15.5905C16.4098 15.6305 16.2698 15.6705 16.1498 15.7505C16.0198 15.8305 16.0098 15.9606 15.9898 16.0806C15.9698 16.1906 15.9598 16.2805 15.8798 16.3405C15.7898 16.4005 15.6198 16.4105 15.3898 16.4205C15.0898 16.4405 14.7098 16.4505 14.2498 16.5905C14.0298 16.6705 13.8298 16.7906 13.6298 16.9106C13.2298 17.1606 12.7798 17.4305 11.9898 17.4305C11.2098 17.4305 10.7598 17.1606 10.3598 16.9106C10.1598 16.7806 9.95979 16.6606 9.72979 16.5806C9.27979 16.4406 8.88978 16.4206 8.58978 16.4106C8.35978 16.4006 8.19978 16.3906 8.09978 16.3306C8.01978 16.2806 8.00977 16.1805 7.98977 16.0705C7.96977 15.9505 7.95977 15.8205 7.82977 15.7405C7.70977 15.6605 7.55977 15.6205 7.39977 15.5705C7.19977 15.5205 6.95979 15.4606 6.66979 15.3006C6.32979 15.1106 6.52979 15.0006 6.63979 14.9406C8.56979 14.0106 8.86978 12.5705 8.87978 12.4605C8.87978 12.4505 8.87978 12.4506 8.87978 12.4406C8.89978 12.3206 8.90977 12.2205 8.76977 12.0905C8.67977 12.0005 8.36977 11.8005 8.11977 11.6405C8.00977 11.5605 7.90978 11.5006 7.84978 11.4706C7.56978 11.2706 7.44979 11.0806 7.53979 10.8306C7.59979 10.6606 7.75979 10.6005 7.91979 10.6005C7.96979 10.6005 8.02979 10.6106 8.06979 10.6206C8.24979 10.6606 8.42978 10.7306 8.58978 10.7906C8.69977 10.8406 8.78976 10.8705 8.85976 10.8905C8.87976 10.9005 8.90979 10.9006 8.91979 10.9006C9.01979 10.9006 9.04979 10.8505 9.03979 10.7505C9.03979 10.7205 9.03978 10.6906 9.02978 10.6606C9.00978 10.3106 8.97977 9.70055 9.01977 9.14055C9.09977 8.30055 9.36978 7.87055 9.68978 7.51055C9.84978 7.33055 10.5798 6.56055 11.9698 6.56055C13.3598 6.56055 14.0898 7.33055 14.2498 7.50055C14.5698 7.87055 14.8398 8.29055 14.9198 9.14055C14.9698 9.73055 14.9298 10.3605 14.8998 10.7105V10.7405C14.8898 10.8505 14.9198 10.8905 15.0198 10.8905C15.0398 10.8905 15.0598 10.8905 15.0798 10.8805C15.1498 10.8605 15.2398 10.8306 15.3498 10.7906C15.4998 10.7306 15.6798 10.6606 15.8698 10.6206C15.9198 10.6006 15.9698 10.6005 16.0198 10.6005C16.1898 10.6005 16.3398 10.6705 16.3998 10.8405C16.4898 11.0805 16.3698 11.2706 16.0898 11.4706C16.0398 11.5106 15.9398 11.5805 15.8198 11.6405C15.5798 11.8005 15.2598 12.0005 15.1698 12.0905C15.0298 12.2205 15.0398 12.3206 15.0598 12.4406C15.0598 12.4506 15.0598 12.4605 15.0598 12.4605C15.0798 12.5705 15.3798 14.0106 17.2998 14.9406C17.4498 15.0006 17.6498 15.1205 17.3098 15.3105Z" />
</svg>

<?xml version="1.0" encoding="UTF-8"?>
<svg width="24" height="24" viewBox="0 0 24 24" xmlns="http://www.w3.org/2000/svg">
 <path d="m12 22c5.5228 0 10-4.4772 10-10 0-5.5228-4.4772-10-10-10-5.5228 0-10 4.4772-10 10 0 5.5228 4.4772 10 10 10z" opacity=".4"/>
 <path d="m17.31 15.31c-0.29 0.16-0.53 0.23-0.73 0.28-0.17 0.04-0.31 0.08-0.43 0.16-0.13 0.08-0.14 0.2101-0.16 0.3301-0.02 0.11-0.03 0.1999-0.11 0.2599-0.09 0.06-0.26 0.07-0.49 0.08-0.3 0.02-0.68 0.03-1.14 0.17-0.22 0.08-0.42 0.2001-0.62 0.3201-0.4 0.25-0.85 0.5199-1.64 0.5199-0.78 0-1.23-0.2699-1.63-0.5199-0.2-0.13-0.40001-0.25-0.63001-0.33-0.45-0.14-0.84001-0.16-1.14-0.17-0.23-0.01-0.39-0.02-0.49-0.08-0.08-0.05-0.09001-0.1501-0.11001-0.2601-0.02-0.12-0.03-0.25-0.16-0.33-0.12-0.08-0.27-0.12-0.43-0.17-0.2-0.05-0.43998-0.1099-0.72998-0.2699-0.34-0.19-0.14-0.3-0.03-0.36 1.93-0.93 2.23-2.3701 2.24-2.4801v-0.0199c0.02-0.12 0.02999-0.2201-0.11001-0.3501-0.09-0.09-0.4-0.29-0.65-0.45-0.11-0.08-0.20999-0.1399-0.26999-0.1699-0.28-0.2-0.39999-0.39-0.30999-0.64 0.06-0.17 0.22-0.2301 0.38-0.2301 0.05 0 0.11 0.0101 0.15 0.0201 0.18 0.04 0.35999 0.11 0.51999 0.17 0.10999 0.05 0.19998 0.0799 0.26998 0.0999 0.02 0.01 0.05003 0.0101 0.06003 0.0101 0.1 0 0.13-0.0501 0.12-0.1501 0-0.03-1e-5 -0.0599-0.01001-0.0899-0.02-0.35-0.05001-0.96005-0.01001-1.52 0.08-0.84 0.35001-1.27 0.67001-1.63 0.16-0.18 0.89002-0.95 2.28-0.95s2.12 0.77 2.28 0.94c0.32 0.37 0.59 0.79 0.67 1.64 0.05 0.59 0.01 1.22-0.02 1.57v0.03c-0.01 0.11 0.02 0.15 0.12 0.15 0.02 0 0.04 0 0.06-0.01 0.07-0.02 0.16-0.0499 0.27-0.0899 0.15-0.06 0.33-0.13 0.52-0.17 0.05-0.02 0.1-0.0201 0.15-0.0201 0.17 0 0.32 0.07 0.38 0.24 0.09 0.24-0.03 0.4301-0.31 0.6301-0.05 0.04-0.15 0.1099-0.27 0.1699-0.24 0.16-0.56 0.36-0.65 0.45-0.14 0.13-0.13 0.2301-0.11 0.3501v0.0199c0.02 0.11 0.32 1.5501 2.24 2.4801 0.15 0.06 0.35 0.1799 0.01 0.3699z" clip-rule="evenodd" fill-rule="evenodd"/>
</svg>
